src/assets/img/culture_guide.svg

<?xml version="1.0" encoding="UTF-8"?>
<!DOCTYPE svg PUBLIC "-//W3C//DTD SVG 1.1//EN" "http://www.w3.org/Graphics/SVG/1.1/DTD/svg11.dtd">
<!-- Creator: CorelDRAW 2019 (64-Bit) -->
<svg xmlns="http://www.w3.org/2000/svg" xml:space="preserve" width="7.3469mm" height="5.7116mm" version="1.1" style="shape-rendering:geometricPrecision; text-rendering:geometricPrecision; image-rendering:optimizeQuality; fill-rule:evenodd; clip-rule:evenodd"
viewBox="0 0 45.01 34.99"
 xmlns:xlink="http://www.w3.org/1999/xlink">
 <defs>
  <style type="text/css">
   <![CDATA[
    .fil0 {fill:black;fill-rule:nonzero}
   ]]>
  </style>
 </defs>
 <g id="Layer_x0020_1">
  <metadata id="CorelCorpID_0Corel-Layer"/>
  <path class="fil0" d="M44.09 0.92l-7.1 0 0 33.15 7.1 0 0 -33.15zm-35.15 16.12l3.09 0 0 -16.58c0,-0.25 0.21,-0.46 0.46,-0.46l8.02 0c0.25,0 0.46,0.21 0.46,0.46l0 16.58 3.09 0 0 -16.58c0,-0.25 0.21,-0.46 0.46,-0.46l8.02 0c0.25,0 0.46,0.21 0.46,0.46l0 16.58 3.09 0 0 -16.58c0,-0.25 0.21,-0.46 0.46,-0.46l8.02 0c0.25,0 0.46,0.21 0.46,0.46l0 34.07c0,0.25 -0.21,0.46 -0.46,0.46l-8.02 0c-0.25,0 -0.46,-0.21 -0.46,-0.46l0 -16.58 -3.09 0 0 16.58c0,0.25 -0.21,0.46 -0.46,0.46l-8.02 0c-0.25,0 -0.46,-0.21 -0.46,-0.46l0 -16.58 -3.09 0 0 16.58c0,0.25 -0.21,0.46 -0.46,0.46l-8.02 0c-0.25,0 -0.46,-0.21 -0.46,-0.46l0 -16.58 -3.09 0 0 16.58c0,0.25 -0.21,0.46 -0.46,0.46l-8.02 0c-0.25,0 -0.46,-0.21 -0.46,-0.46l0 -34.07c0,-0.25 0.21,-0.46 0.46,-0.46l8.02 0c0.25,0 0.46,0.21 0.46,0.46l0 16.58zm23.13 -16.12l-7.1 0c0,11.05 0,22.1 0,33.15l7.1 0c0,-11.05 0,-22.1 0,-33.15zm-12.02 0l-7.1 0c0,11.05 0,22.1 0,33.15l7.1 0c0,-11.05 0,-22.1 0,-33.15zm-12.02 0l-7.1 0 0 33.15 7.1 0 0 -33.15z"/>
 </g>
</svg>

<?xml version="1.0" encoding="UTF-8" standalone="no"?>
<!-- Creator: CorelDRAW 2019 (64-Bit) -->

<svg
   xmlns:dc="http://purl.org/dc/elements/1.1/"
   xmlns:cc="http://creativecommons.org/ns#"
   xmlns:rdf="http://www.w3.org/1999/02/22-rdf-syntax-ns#"
   xmlns:svg="http://www.w3.org/2000/svg"
   xmlns="http://www.w3.org/2000/svg"
   xmlns:sodipodi="http://sodipodi.sourceforge.net/DTD/sodipodi-0.dtd"
   xmlns:inkscape="http://www.inkscape.org/namespaces/inkscape"
   xml:space="preserve"
   width="85"
   height="85"
   version="1.1"
   style="clip-rule:evenodd;fill-rule:evenodd;image-rendering:optimizeQuality;shape-rendering:geometricPrecision;text-rendering:geometricPrecision"
   viewBox="0 0 137.78004 137.7741"
   id="svg10"
   sodipodi:docname="culture_guide.svg"
   inkscape:version="0.92.3 (2405546, 2018-03-11)"><metadata
   id="metadata14"><rdf:RDF><cc:Work
       rdf:about=""><dc:format>image/svg+xml</dc:format><dc:type
         rdf:resource="http://purl.org/dc/dcmitype/StillImage" /><dc:title></dc:title></cc:Work></rdf:RDF></metadata><sodipodi:namedview
   pagecolor="#ffffff"
   bordercolor="#666666"
   borderopacity="1"
   objecttolerance="10"
   gridtolerance="10"
   guidetolerance="10"
   inkscape:pageopacity="0"
   inkscape:pageshadow="2"
   inkscape:window-width="1920"
   inkscape:window-height="1015"
   id="namedview12"
   showgrid="false"
   units="px"
   inkscape:zoom="1.9325989"
   inkscape:cx="41.541744"
   inkscape:cy="68.755706"
   inkscape:window-x="1920"
   inkscape:window-y="0"
   inkscape:window-maximized="1"
   inkscape:current-layer="svg10" />
 <defs
   id="defs4">
  <style
   type="text/css"
   id="style2">
   <![CDATA[
    .fil0 {fill:black;fill-rule:nonzero}
   ]]>
  </style>
 </defs>
 <g
   id="Layer_x0020_1"
   transform="matrix(2.1598157,0,0,2.1598157,20.26177,31.101074)"
   style="fill:#12d9e1;fill-opacity:1">
  <metadata
   id="CorelCorpID_0Corel-Layer" />
  <path
   class="fil0"
   d="m 44.09,0.92 h -7.1 v 33.15 h 7.1 z M 8.94,17.04 h 3.09 V 0.46 C 12.03,0.21 12.24,0 12.49,0 h 8.02 c 0.25,0 0.46,0.21 0.46,0.46 v 16.58 h 3.09 V 0.46 C 24.06,0.21 24.27,0 24.52,0 h 8.02 C 32.79,0 33,0.21 33,0.46 v 16.58 h 3.09 V 0.46 C 36.09,0.21 36.3,0 36.55,0 h 8.02 c 0.25,0 0.46,0.21 0.46,0.46 v 34.07 c 0,0.25 -0.21,0.46 -0.46,0.46 h -8.02 c -0.25,0 -0.46,-0.21 -0.46,-0.46 V 17.95 H 33 v 16.58 c 0,0.25 -0.21,0.46 -0.46,0.46 h -8.02 c -0.25,0 -0.46,-0.21 -0.46,-0.46 V 17.95 h -3.09 v 16.58 c 0,0.25 -0.21,0.46 -0.46,0.46 h -8.02 c -0.25,0 -0.46,-0.21 -0.46,-0.46 V 17.95 H 8.94 v 16.58 c 0,0.25 -0.21,0.46 -0.46,0.46 H 0.46 C 0.21,34.99 0,34.78 0,34.53 V 0.46 C 0,0.21 0.21,0 0.46,0 H 8.48 C 8.73,0 8.94,0.21 8.94,0.46 Z M 32.07,0.92 h -7.1 c 0,11.05 0,22.1 0,33.15 h 7.1 c 0,-11.05 0,-22.1 0,-33.15 z m -12.02,0 h -7.1 c 0,11.05 0,22.1 0,33.15 h 7.1 c 0,-11.05 0,-22.1 0,-33.15 z m -12.02,0 h -7.1 v 33.15 h 7.1 z"
   id="path7"
   inkscape:connector-curvature="0"
   style="fill:#12d9e1;fill-opacity:1;fill-rule:nonzero" />
 </g>
</svg>
